X:1
T: Pander Dance
C:
R:Jig
Q:180
K:G
M:6/8
L:1/16
|:D2|G2A2B2 B2d2B2|A2G2G2 G4d2|d2F2F2 G2G2A2|A2B2G2 F2E2D2|
G2A2B2 B2d2B2|A2G2G2 G4d2|F2E2F2 D2E2F2|A2G2G2 G4:|
|:d2|g2f2g2 g2f2d2|c2B2c2 d2e2f2|g2f2g2 a2f2d2|c2B2c2 d2e2f2|
g2a2g2 g2f2g2|e2c2e2 e2f2g2|d2e2c2 B2c2B2|A2G2G2 G4:|
